<?xml version="1.0" encoding="UTF-8"?>
<map version="1.10" tiledversion="1.12.2" orientation="orthogonal" renderorder="right-down" width="72" height="72" tilewidth="32" tileheight="32" infinite="0" nextlayerid="16" nextobjectid="219">
 <properties>
  <property name="DesignIntent" value="Clean readable room silhouettes; asymmetric placement; distinctive L/step/concave room shapes"/>
  <property name="DesignVersion" value="v0.3"/>
 </properties>
 <tileset firstgid="1" name="Polar_Ring_Graybox" tilewidth="32" tileheight="32" tilecount="0" columns="2">
  <image source="Polar_Ring_72x72_v03_tiles.png" width="64" height="32"/>
 </tileset>
 <layer id="1" name="Wall" width="72" height="72">
  <data encoding="csv">
0,0,0,0,0,0,0,0,0,0,0,0,0,0,0,0,0,0,0,0,0,0,0,0,0,0,0,0,0,0,0,0,0,0,0,0,0,0,0,0,0,0,0,0,0,0,0,0,0,0,0,0,0,0,0,0,0,0,0,0,0,0,0,0,0,0,0,0,0,0,0,0,
0,0,0,0,0,0,0,0,0,0,0,0,0,0,0,0,0,0,0,0,0,0,0,0,0,0,0,0,0,0,0,0,0,0,0,0,0,0,0,0,0,0,0,0,0,0,0,0,0,0,0,0,0,0,0,0,0,0,0,0,0,0,0,0,0,0,0,0,0,0,0,0,
0,0,0,0,0,0,0,0,0,0,0,0,0,0,0,0,0,0,0,0,0,0,0,0,0,0,0,0,0,0,0,0,0,0,0,0,0,0,0,0,0,0,0,0,0,0,0,0,0,0,0,0,0,0,0,0,0,0,0,0,0,0,0,0,0,0,0,0,0,0,0,0,
0,0,0,0,0,0,0,0,0,0,0,0,0,0,0,0,0,0,0,0,0,0,0,0,0,0,0,0,0,0,0,0,0,0,0,0,0,0,0,0,0,0,0,0,0,0,0,0,0,0,0,0,0,0,0,0,0,0,0,0,0,0,0,0,0,0,0,0,0,0,0,0,
0,0,0,0,0,0,0,0,0,0,0,0,0,0,0,0,0,0,0,0,0,0,0,0,0,0,0,0,0,0,0,0,0,0,0,0,0,0,0,0,0,0,0,0,0,0,0,0,0,0,0,0,0,0,0,0,0,0,0,0,0,0,0,0,0,0,0,0,0,0,0,0,
0,0,0,0,0,0,0,0,0,0,0,0,0,0,0,0,0,0,0,0,0,0,0,0,0,0,0,0,0,0,0,0,0,0,0,0,0,0,0,0,0,0,0,0,0,0,0,0,0,0,0,0,0,0,0,0,0,0,0,0,0,0,0,0,0,0,0,0,0,0,0,0,
0,0,0,0,0,0,0,0,0,0,0,0,0,0,0,0,0,0,0,0,0,0,0,0,0,0,0,0,0,0,0,0,0,0,0,0,0,0,0,0,0,0,0,0,0,0,0,0,0,0,0,0,0,0,0,0,0,0,0,0,0,0,0,0,0,0,0,0,0,0,0,0,
0,0,0,0,0,0,1,1,1,1,1,1,1,1,1,1,1,1,1,1,1,1,1,1,1,1,1,1,1,1,1,1,1,1,1,1,1,1,1,1,1,1,1,1,1,1,1,1,1,1,1,1,1,1,1,1,1,1,1,1,1,1,1,1,1,1,1,0,0,0,0,0,
0,0,0,0,0,0,1,0,0,0,0,0,0,0,0,0,0,0,0,0,0,0,0,0,0,0,0,0,0,0,0,0,0,0,0,0,0,0,0,0,0,0,0,0,0,0,0,0,0,0,0,0,0,0,0,0,0,0,0,0,0,0,0,0,0,0,1,0,0,0,0,0,
0,0,0,0,0,0,1,0,0,0,0,0,0,0,0,0,0,0,0,0,0,0,0,0,0,0,0,0,0,0,0,1,1,1,1,1,1,1,1,1,1,1,1,1,1,1,1,1,1,1,1,0,0,0,0,0,0,0,0,0,0,0,0,0,0,0,1,0,0,0,0,0,
0,0,0,0,0,0,1,0,0,1,1,1,1,1,1,1,1,1,1,1,1,1,1,1,1,1,0,0,0,0,0,1,0,0,0,0,0,0,0,0,0,0,0,0,0,0,0,0,0,0,1,0,0,0,0,0,0,0,0,0,0,0,0,0,0,0,1,0,0,0,0,0,
0,0,0,0,0,0,1,0,0,1,0,0,0,0,1,0,0,0,0,0,0,0,0,0,0,1,0,0,0,0,0,0,0,0,0,0,0,0,0,0,0,0,0,0,0,0,0,0,0,0,1,0,0,0,1,1,1,1,0,0,0,1,1,1,0,0,1,0,0,0,0,0,
0,0,0,0,0,0,1,0,0,1,0,0,0,0,1,0,0,0,0,0,0,0,0,0,0,0,0,0,0,0,0,0,0,0,0,0,0,0,0,0,0,0,0,0,0,0,0,0,0,0,1,0,0,0,0,0,0,0,0,0,0,0,0,1,0,0,1,0,0,0,0,0,
0,0,0,0,0,0,1,0,0,1,0,0,0,0,0,0,0,0,0,0,0,0,0,0,0,0,0,0,0,0,0,0,0,0,0,0,0,0,0,0,0,0,0,0,0,0,0,0,0,0,1,0,0,0,0,0,0,0,0,0,0,0,0,1,0,0,1,0,0,0,0,0,
0,0,0,0,0,0,1,0,0,1,0,0,0,0,0,0,0,0,0,0,0,0,0,0,0,0,0,0,0,0,0,0,0,1,1,1,1,0,0,0,0,0,0,0,0,0,0,0,0,0,1,0,0,0,0,0,0,0,0,0,0,0,0,1,0,0,1,0,0,0,0,0,
0,0,0,0,0,0,1,0,0,1,0,0,0,0,0,0,0,0,0,0,1,0,0,0,1,1,0,0,0,0,0,1,0,0,0,0,1,0,0,0,0,0,0,0,0,0,0,0,0,0,0,0,0,0,0,0,0,0,0,0,0,0,0,1,0,0,1,0,0,0,0,0,
0,0,0,0,0,0,1,0,0,1,0,0,0,0,1,0,0,0,0,0,1,0,0,0,0,1,0,0,0,0,0,1,0,0,0,0,1,0,0,0,0,0,0,0,0,0,0,0,0,0,0,0,0,1,0,0,0,0,0,0,0,0,0,1,0,0,1,0,0,0,0,0,
0,0,0,0,0,0,1,0,0,1,0,0,0,0,1,0,0,0,0,0,1,0,0,0,0,1,0,0,0,0,0,1,0,0,0,0,1,1,0,0,0,0,0,0,0,0,0,0,0,0,0,0,0,1,0,0,0,0,0,0,0,0,0,0,0,0,1,0,0,0,0,0,
0,0,0,0,0,0,1,0,0,1,0,0,0,0,1,1,1,1,0,0,1,0,0,0,0,1,0,0,0,0,0,1,0,0,0,0,0,0,0,0,0,0,0,0,0,0,0,0,0,0,1,0,0,1,0,0,0,0,0,0,0,0,0,0,0,0,1,0,0,0,0,0,
0,0,0,0,0,0,1,0,0,1,0,0,0,0,0,0,0,0,0,0,1,1,0,0,0,1,1,1,0,0,1,1,0,0,0,0,0,1,0,0,0,0,0,0,1,1,1,1,1,0,1,0,0,1,0,0,0,0,0,0,0,0,0,0,0,0,1,0,0,0,0,0,
0,0,0,0,0,0,1,0,0,1,0,1,1,0,0,0,0,0,0,0,0,1,1,0,0,1,0,0,0,0,0,0,0,0,0,0,0,1,0,0,0,0,0,0,0,0,1,0,0,0,1,0,0,1,0,0,0,0,0,0,0,0,0,1,0,0,1,0,0,0,0,0,
0,0,0,0,0,0,1,0,0,1,0,0,1,0,0,0,0,0,0,0,0,0,1,0,0,1,0,0,0,0,0,0,0,0,0,0,0,1,0,0,0,0,0,0,0,0,0,0,0,0,1,0,0,1,0,0,0,0,0,0,0,0,0,1,0,0,1,0,0,0,0,0,
0,0,0,0,0,0,1,0,0,1,0,0,1,0,0,0,0,0,0,0,0,0,1,1,0,1,0,0,0,0,0,0,0,0,0,0,0,1,1,1,0,0,0,1,1,1,1,1,1,1,1,0,0,0,0,0,0,0,0,0,0,0,0,1,0,0,1,0,0,0,0,0,
0,0,0,0,0,0,1,0,0,1,0,0,0,0,0,0,0,0,0,0,1,0,0,0,0,0,0,0,0,0,0,1,0,0,0,0,0,0,0,0,0,0,0,0,0,0,0,0,0,0,0,0,0,0,0,0,0,0,1,0,0,0,0,1,0,0,1,0,0,0,0,0,
0,0,0,0,0,0,1,0,0,1,1,1,1,0,0,0,1,1,1,1,1,0,0,0,0,0,0,1,1,1,1,1,0,0,0,0,0,0,0,0,0,0,0,0,0,0,0,0,1,1,1,1,0,0,0,0,0,0,1,0,0,0,0,1,0,0,1,0,0,0,0,0,
0,0,0,0,0,0,1,0,0,0,0,0,0,0,0,0,0,0,0,0,0,0,0,0,0,0,0,0,0,0,0,1,1,1,0,0,0,1,1,1,1,1,1,1,0,0,0,0,0,0,0,1,0,0,1,1,1,1,1,0,0,0,0,1,0,0,1,0,0,0,0,0,
0,0,0,0,0,0,1,0,0,0,0,0,0,0,0,0,0,0,0,0,0,0,0,0,0,0,0,0,0,0,0,1,0,0,0,0,0,0,0,0,0,0,0,0,0,0,0,0,0,0,0,1,0,0,0,0,0,0,1,1,0,0,0,1,0,0,1,0,0,0,0,0,
0,0,0,0,0,0,1,0,0,0,0,0,0,0,0,0,0,0,0,0,0,0,0,0,0,0,0,0,0,0,0,1,0,0,0,0,0,0,0,0,0,0,0,0,0,0,0,0,0,0,0,1,0,0,1,0,0,0,0,0,0,0,0,0,0,0,1,0,0,0,0,0,
0,0,0,0,0,0,1,0,0,0,0,0,0,0,0,0,0,0,0,0,0,0,0,0,0,0,0,0,0,0,0,0,0,0,0,0,0,0,0,0,0,0,0,0,0,0,0,0,0,0,0,0,0,0,1,0,0,0,0,0,0,0,0,0,0,0,1,0,0,0,0,0,
0,0,0,0,0,0,1,0,0,1,1,1,0,0,0,1,1,1,1,1,1,1,0,0,0,0,0,0,0,0,0,0,0,0,0,0,0,0,0,0,0,0,0,0,0,0,0,0,0,0,0,0,0,0,1,1,0,0,0,0,0,0,0,1,1,0,1,0,0,0,0,0,
0,0,0,0,0,0,1,0,0,1,0,0,0,0,0,0,0,0,0,1,0,0,0,0,0,0,0,0,0,0,0,0,0,0,0,0,0,0,0,0,0,0,0,0,0,0,0,0,0,0,0,0,1,1,1,1,0,0,0,1,1,1,1,1,0,0,1,0,0,0,0,0,
0,0,0,0,0,0,1,0,0,1,0,0,0,0,0,0,0,0,0,1,0,0,0,0,0,0,0,0,0,0,0,0,0,0,0,0,0,0,0,0,0,0,0,0,0,0,0,0,0,0,0,0,1,0,0,0,0,0,0,0,0,0,0,1,0,0,1,0,0,0,0,0,
0,0,0,0,0,0,1,0,0,1,0,0,0,0,0,0,0,0,0,1,0,0,0,0,0,0,0,0,0,0,0,0,0,0,0,0,0,0,0,0,0,0,0,0,0,0,0,0,0,0,0,0,1,0,0,0,0,0,0,0,0,0,0,1,0,0,1,0,0,0,0,0,
0,0,0,0,0,0,1,0,0,1,0,0,0,0,0,0,0,0,0,1,1,1,1,1,0,0,0,0,0,0,0,0,0,0,0,1,1,1,1,0,0,0,0,0,0,0,0,0,0,0,0,0,1,0,0,1,0,0,0,0,0,0,0,1,0,0,1,0,0,0,0,0,
0,0,0,0,0,0,1,0,0,1,0,1,1,1,0,0,0,0,0,0,0,0,0,1,0,0,0,0,0,0,0,1,0,0,0,0,0,0,1,1,1,0,0,0,0,0,0,0,0,0,1,1,1,0,0,1,0,0,0,0,0,0,0,1,0,0,1,0,0,0,0,0,
0,0,0,0,0,0,1,0,0,1,0,0,0,0,0,0,1,0,0,0,0,0,0,1,0,0,0,0,0,0,0,1,0,0,1,0,0,0,1,0,0,0,0,0,0,0,1,1,1,0,1,0,0,0,0,1,0,0,0,0,0,0,0,1,0,0,1,0,0,0,0,0,
0,0,0,0,0,0,1,0,0,1,0,0,0,0,0,0,1,0,0,0,0,0,0,1,0,0,0,0,0,0,0,1,1,1,1,1,0,0,1,0,0,0,0,0,0,0,0,0,1,0,0,0,0,0,0,0,0,0,0,1,1,1,1,1,0,0,1,0,0,0,0,0,
0,0,0,0,0,0,1,0,0,1,0,0,0,0,0,0,1,1,1,0,0,0,0,0,0,0,0,0,0,0,0,0,0,0,0,1,0,1,1,0,0,0,0,0,0,0,0,0,1,0,0,0,0,0,0,0,0,0,0,0,0,0,0,0,0,0,1,0,0,0,0,0,
0,0,0,0,0,0,1,0,0,1,0,0,0,0,0,0,0,0,1,1,1,1,0,0,0,0,0,0,0,0,0,0,0,0,0,1,0,0,0,0,0,0,0,0,0,0,0,0,1,0,0,0,0,0,0,0,0,0,0,0,0,0,0,0,0,0,1,0,0,0,0,0,
0,0,0,0,0,0,1,0,0,1,0,0,0,0,0,0,0,0,0,1,0,0,0,0,0,0,0,0,0,0,0,0,0,0,0,1,0,0,0,0,0,0,0,0,0,0,1,1,1,0,1,0,0,0,0,0,1,1,1,0,1,1,0,1,1,0,1,0,0,0,0,0,
0,0,0,0,0,0,1,0,0,1,0,0,0,0,0,0,0,0,0,1,0,0,0,1,1,1,1,0,0,0,0,0,0,0,0,1,0,0,0,0,0,0,0,0,0,0,0,0,0,0,1,0,0,0,0,0,0,0,0,0,0,0,0,1,0,0,1,0,0,0,0,0,
0,0,0,0,0,0,1,0,0,1,0,0,0,0,0,0,0,0,0,1,0,0,0,1,0,0,0,0,0,0,0,0,0,0,0,0,0,0,0,0,0,0,0,0,0,0,0,0,0,0,1,0,0,0,0,0,0,0,0,0,0,0,0,1,0,0,1,0,0,0,0,0,
0,0,0,0,0,0,1,0,0,1,0,0,0,0,0,0,0,0,0,1,0,0,0,1,0,0,0,0,0,0,0,0,0,0,0,0,0,0,0,0,0,0,0,0,0,0,1,1,1,1,1,1,0,0,1,1,0,0,0,0,0,0,0,1,0,0,1,0,0,0,0,0,
0,0,0,0,0,0,1,0,0,1,0,0,0,0,0,0,0,0,0,0,0,0,0,1,0,0,0,0,0,0,0,0,0,0,0,0,0,0,0,0,0,0,0,0,0,0,0,0,0,0,0,0,0,0,0,1,0,0,1,0,0,0,0,1,0,0,1,0,0,0,0,0,
0,0,0,0,0,0,1,0,0,1,0,0,0,0,0,0,0,0,0,0,0,0,0,1,0,0,0,0,0,0,0,0,0,0,0,0,0,0,0,0,0,1,1,1,0,0,0,0,0,0,0,0,0,0,0,1,0,0,1,0,0,0,0,1,0,0,1,0,0,0,0,0,
0,0,0,0,0,0,1,0,0,1,1,1,1,1,0,0,0,1,1,1,1,1,1,1,0,0,0,0,0,0,0,0,1,0,0,0,0,0,0,0,0,0,0,0,0,0,0,0,0,0,0,0,0,0,0,1,0,0,1,0,1,0,0,1,0,0,1,0,0,0,0,0,
0,0,0,0,0,0,1,0,0,0,0,0,0,0,0,0,0,0,0,0,0,0,0,0,0,0,0,0,0,0,0,0,1,0,0,0,0,0,0,0,0,0,0,0,0,0,0,0,0,0,0,0,0,0,0,1,0,0,0,0,1,0,0,1,0,0,1,0,0,0,0,0,
0,0,0,0,0,0,1,0,0,0,0,0,1,0,0,0,0,0,0,0,0,0,0,0,0,0,0,0,0,0,0,0,1,0,0,0,0,0,0,0,0,0,0,0,0,0,0,0,0,0,0,0,0,0,0,1,1,1,0,0,1,1,1,1,0,0,1,0,0,0,0,0,
0,0,0,0,0,0,1,0,0,0,0,0,1,0,0,1,0,0,0,0,0,0,0,0,0,0,0,0,0,0,0,0,1,0,0,0,0,0,0,0,0,0,0,0,0,0,0,0,0,0,0,0,0,0,0,0,0,0,0,0,0,0,0,0,0,0,1,0,0,0,0,0,
0,0,0,0,0,0,1,0,0,0,0,0,1,0,0,1,0,0,0,0,0,0,0,0,0,0,0,0,0,0,0,0,1,0,0,0,0,0,0,0,0,0,0,0,0,0,0,0,0,0,0,0,0,0,0,0,0,0,0,0,0,0,0,0,0,0,1,0,0,0,0,0,
0,0,0,0,0,0,1,0,0,0,0,0,1,1,1,1,1,1,1,0,0,0,1,1,1,1,1,1,1,1,1,1,1,1,1,0,0,0,0,0,0,0,0,1,1,1,1,1,0,0,0,1,1,1,1,1,1,1,1,1,1,1,0,0,0,0,1,0,0,0,0,0,
0,0,0,0,0,0,1,0,0,0,0,0,1,0,0,0,0,0,0,0,0,0,0,0,0,1,0,0,0,0,0,0,0,0,1,1,1,0,0,0,1,0,0,1,0,0,0,0,0,0,0,0,0,0,0,0,0,0,0,0,0,1,0,0,0,0,1,0,0,0,0,0,
0,0,0,0,0,0,1,0,0,0,0,0,1,0,0,0,0,0,0,0,0,1,0,0,0,1,0,0,1,0,0,0,0,0,1,0,0,0,0,0,0,0,0,0,0,0,0,0,0,0,0,0,0,0,0,0,0,0,0,0,0,1,0,0,0,0,1,0,0,0,0,0,
0,0,0,0,0,0,1,0,0,0,0,0,1,0,0,0,0,0,0,0,0,1,0,0,0,0,0,0,1,0,0,0,0,0,1,0,0,0,0,0,0,0,0,0,0,0,0,0,0,0,0,0,0,0,0,0,0,0,0,0,0,1,0,0,0,0,1,0,0,0,0,0,
0,0,0,0,0,0,1,0,0,0,0,0,1,0,0,0,0,0,0,0,0,1,0,0,0,0,0,0,1,0,0,0,0,0,1,1,1,1,1,0,0,0,0,0,0,0,0,0,0,0,0,0,0,0,0,0,0,0,0,0,0,0,0,0,0,0,1,0,0,0,0,0,
0,0,0,0,0,0,1,0,0,0,0,0,0,0,0,0,0,0,0,0,1,1,1,1,0,0,0,0,1,0,0,0,0,0,0,0,0,0,1,0,0,0,0,1,0,0,0,0,0,0,0,0,0,0,0,0,0,0,0,0,0,0,0,0,0,0,1,0,0,0,0,0,
0,0,0,0,0,0,1,0,0,0,0,0,0,0,0,0,0,0,0,0,1,0,0,1,0,0,0,0,0,0,0,1,0,0,0,0,0,0,1,0,0,0,0,1,0,0,0,0,0,0,0,0,0,0,0,0,0,0,0,0,0,0,0,0,0,0,1,0,0,0,0,0,
0,0,0,0,0,0,1,0,0,0,0,0,0,0,1,0,0,1,0,0,0,0,0,1,0,0,0,0,0,0,0,1,0,0,0,0,0,0,0,0,0,0,0,1,0,0,0,1,1,0,0,0,0,0,0,0,0,0,0,0,0,1,0,0,0,0,1,0,0,0,0,0,
0,0,0,0,0,0,1,0,0,0,0,0,1,1,1,0,0,0,0,0,0,0,0,1,0,0,0,0,1,1,1,1,0,0,0,1,0,0,0,0,0,0,0,0,0,0,0,0,1,0,0,0,0,0,0,0,0,0,0,0,0,1,0,0,0,0,1,0,0,0,0,0,
0,0,0,0,0,0,1,1,1,1,0,0,1,0,0,0,0,0,0,0,0,0,0,0,0,0,0,0,0,0,0,0,0,0,0,1,0,0,0,0,0,0,0,0,0,0,0,0,1,0,0,0,0,0,0,0,0,0,0,0,0,1,0,0,0,0,1,0,0,0,0,0,
0,0,0,0,0,0,1,0,0,0,0,0,1,0,0,0,0,0,0,0,0,0,0,0,0,0,0,0,0,0,0,0,0,0,0,1,0,0,1,0,0,0,0,0,0,0,0,0,1,0,0,0,0,0,0,0,0,0,0,0,0,1,0,0,0,0,1,0,0,0,0,0,
0,0,0,0,0,0,1,0,0,0,0,0,1,1,1,1,1,1,1,1,1,1,1,1,1,1,1,1,1,1,1,1,1,1,1,1,1,1,1,0,0,0,0,0,0,0,0,0,1,1,1,1,1,0,0,0,1,1,1,1,1,1,0,0,0,0,1,0,0,0,0,0,
0,0,0,0,0,0,1,0,0,0,0,0,0,0,0,0,0,0,0,0,0,0,0,0,0,0,0,0,0,0,0,0,0,0,0,0,0,0,0,0,0,0,0,0,0,0,0,0,0,0,0,0,0,0,0,0,0,0,0,0,0,0,0,0,0,0,1,0,0,0,0,0,
0,0,0,0,0,0,1,0,0,0,0,0,0,0,0,0,0,0,0,0,0,0,0,0,0,0,0,0,0,0,0,0,0,0,0,0,0,0,0,0,0,0,0,0,0,0,0,0,0,0,0,0,0,0,0,0,0,0,0,0,0,0,0,0,0,0,1,0,0,0,0,0,
0,0,0,0,0,0,1,1,1,1,1,1,1,1,1,1,1,1,1,1,1,1,1,1,1,1,1,1,1,1,1,1,1,1,1,1,1,1,1,1,1,1,1,1,1,1,1,1,1,1,1,1,1,1,1,1,1,1,1,1,1,1,1,1,1,1,1,0,0,0,0,0,
0,0,0,0,0,0,0,0,0,0,0,0,0,0,0,0,0,0,0,0,0,0,0,0,0,0,0,0,0,0,0,0,0,0,0,0,0,0,0,0,0,0,0,0,0,0,0,0,0,0,0,0,0,0,0,0,0,0,0,0,0,0,0,0,0,0,0,0,0,0,0,0,
0,0,0,0,0,0,0,0,0,0,0,0,0,0,0,0,0,0,0,0,0,0,0,0,0,0,0,0,0,0,0,0,0,0,0,0,0,0,0,0,0,0,0,0,0,0,0,0,0,0,0,0,0,0,0,0,0,0,0,0,0,0,0,0,0,0,0,0,0,0,0,0,
0,0,0,0,0,0,0,0,0,0,0,0,0,0,0,0,0,0,0,0,0,0,0,0,0,0,0,0,0,0,0,0,0,0,0,0,0,0,0,0,0,0,0,0,0,0,0,0,0,0,0,0,0,0,0,0,0,0,0,0,0,0,0,0,0,0,0,0,0,0,0,0,
0,0,0,0,0,0,0,0,0,0,0,0,0,0,0,0,0,0,0,0,0,0,0,0,0,0,0,0,0,0,0,0,0,0,0,0,0,0,0,0,0,0,0,0,0,0,0,0,0,0,0,0,0,0,0,0,0,0,0,0,0,0,0,0,0,0,0,0,0,0,0,0,
0,0,0,0,0,0,0,0,0,0,0,0,0,0,0,0,0,0,0,0,0,0,0,0,0,0,0,0,0,0,0,0,0,0,0,0,0,0,0,0,0,0,0,0,0,0,0,0,0,0,0,0,0,0,0,0,0,0,0,0,0,0,0,0,0,0,0,0,0,0,0,0,
0,0,0,0,0,0,0,0,0,0,0,0,0,0,0,0,0,0,0,0,0,0,0,0,0,0,0,0,0,0,0,0,0,0,0,0,0,0,0,0,0,0,0,0,0,0,0,0,0,0,0,0,0,0,0,0,0,0,0,0,0,0,0,0,0,0,0,0,0,0,0,0,
0,0,0,0,0,0,0,0,0,0,0,0,0,0,0,0,0,0,0,0,0,0,0,0,0,0,0,0,0,0,0,0,0,0,0,0,0,0,0,0,0,0,0,0,0,0,0,0,0,0,0,0,0,0,0,0,0,0,0,0,0,0,0,0,0,0,0,0,0,0,0,0
</data>
 </layer>
 <layer id="2" name="Cover" width="72" height="72">
  <data encoding="csv">
0,0,0,0,0,0,0,0,0,0,0,0,0,0,0,0,0,0,0,0,0,0,0,0,0,0,0,0,0,0,0,0,0,0,0,0,0,0,0,0,0,0,0,0,0,0,0,0,0,0,0,0,0,0,0,0,0,0,0,0,0,0,0,0,0,0,0,0,0,0,0,0,
0,0,0,0,0,0,0,0,0,0,0,0,0,0,0,0,0,0,0,0,0,0,0,0,0,0,0,0,0,0,0,0,0,0,0,0,0,0,0,0,0,0,0,0,0,0,0,0,0,0,0,0,0,0,0,0,0,0,0,0,0,0,0,0,0,0,0,0,0,0,0,0,
0,0,0,0,0,0,0,0,0,0,0,0,0,0,0,0,0,0,0,0,0,0,0,0,0,0,0,0,0,0,0,0,0,0,0,0,0,0,0,0,0,0,0,0,0,0,0,0,0,0,0,0,0,0,0,0,0,0,0,0,0,0,0,0,0,0,0,0,0,0,0,0,
0,0,0,0,0,0,0,0,0,0,0,0,0,0,0,0,0,0,0,0,0,0,0,0,0,0,0,0,0,0,0,0,0,0,0,0,0,0,0,0,0,0,0,0,0,0,0,0,0,0,0,0,0,0,0,0,0,0,0,0,0,0,0,0,0,0,0,0,0,0,0,0,
0,0,0,0,0,0,0,0,0,0,0,0,0,0,0,0,0,0,0,0,0,0,0,0,0,0,0,0,0,0,0,0,0,0,0,0,0,0,0,0,0,0,0,0,0,0,0,0,0,0,0,0,0,0,0,0,0,0,0,0,0,0,0,0,0,0,0,0,0,0,0,0,
0,0,0,0,0,0,0,0,0,0,0,0,0,0,0,0,0,0,0,0,0,0,0,0,0,0,0,0,0,0,0,0,0,0,0,0,0,0,0,0,0,0,0,0,0,0,0,0,0,0,0,0,0,0,0,0,0,0,0,0,0,0,0,0,0,0,0,0,0,0,0,0,
0,0,0,0,0,0,0,0,0,0,0,0,0,0,0,0,0,0,0,0,0,0,0,0,0,0,0,0,0,0,0,0,0,0,0,0,0,0,0,0,0,0,0,0,0,0,0,0,0,0,0,0,0,0,0,0,0,0,0,0,0,0,0,0,0,0,0,0,0,0,0,0,
0,0,0,0,0,0,0,0,0,0,0,0,0,0,0,0,0,0,0,0,0,0,0,0,0,0,0,0,0,0,0,0,0,0,0,0,0,0,0,0,0,0,0,0,0,0,0,0,0,0,0,0,0,0,0,0,0,0,0,0,0,0,0,0,0,0,0,0,0,0,0,0,
0,0,0,0,0,0,0,0,0,0,0,0,0,0,0,0,0,0,0,0,0,0,0,0,0,0,0,0,0,0,0,0,0,0,0,0,0,0,0,0,0,0,0,0,0,0,0,0,0,0,0,0,0,0,0,0,0,0,0,0,0,2,0,0,0,0,0,0,0,0,0,0,
0,0,0,0,0,0,0,0,0,0,0,0,0,0,0,0,0,0,0,0,0,0,0,0,0,0,0,0,0,0,0,0,0,0,0,0,0,0,0,0,0,0,0,0,0,0,0,0,0,0,0,0,0,0,0,2,2,2,0,0,0,2,0,0,0,0,0,0,0,0,0,0,
0,0,0,0,0,0,0,0,0,0,0,0,0,0,0,0,0,0,0,0,0,0,0,0,0,0,0,0,0,0,0,0,0,0,2,2,2,2,2,0,0,0,0,0,0,0,0,0,0,0,0,0,2,0,0,0,0,2,0,0,0,0,0,2,2,0,0,0,0,0,0,0,
0,0,0,0,0,0,0,0,0,0,0,0,0,0,0,0,0,0,0,0,2,2,0,0,0,0,0,0,0,0,0,0,0,0,0,0,2,2,0,0,0,0,0,0,2,2,0,0,0,0,0,0,2,2,0,0,0,0,0,0,0,0,0,0,0,0,0,0,0,0,0,0,
0,0,0,0,0,0,0,0,0,0,0,0,0,0,0,0,0,0,0,0,2,2,0,0,0,0,0,0,0,0,0,0,0,0,0,0,0,2,0,0,0,0,0,0,2,2,0,0,0,0,0,0,0,0,0,0,0,0,0,0,2,0,0,0,0,0,0,0,0,0,0,0,
0,0,0,0,0,0,0,0,0,0,0,0,2,0,0,0,0,0,0,0,2,0,0,0,0,0,0,0,0,0,0,0,0,0,0,0,0,0,0,0,2,2,2,0,0,0,0,2,2,2,0,0,0,0,0,0,0,2,2,2,2,0,0,0,0,0,0,0,0,0,0,0,
0,0,0,0,0,0,0,0,0,0,2,2,2,2,0,0,0,0,0,0,0,0,0,0,0,0,0,0,0,0,0,0,0,0,0,0,0,0,0,0,2,2,2,0,0,0,0,2,2,2,0,0,0,0,0,2,0,0,0,0,0,0,0,0,0,0,0,0,0,0,0,0,
0,0,0,0,0,0,0,0,0,0,0,0,0,0,0,0,0,2,2,2,0,2,2,0,0,0,0,0,0,0,0,0,0,0,0,0,0,0,0,0,0,0,0,0,0,0,0,0,0,0,0,0,0,0,0,2,0,0,0,0,0,0,0,0,0,0,0,0,0,0,0,0,
0,0,0,0,0,0,0,0,0,0,0,0,0,0,0,0,0,0,2,0,0,0,0,0,0,0,0,0,0,0,0,0,0,0,0,0,0,0,0,0,0,0,0,2,2,2,0,0,0,0,0,0,0,0,0,2,0,0,0,0,2,2,2,0,0,0,0,0,0,0,0,0,
0,0,0,0,0,0,0,0,0,0,0,0,0,0,0,0,0,0,0,0,0,0,0,0,0,0,0,0,0,0,0,0,0,2,2,2,0,0,0,0,0,0,0,2,2,2,0,0,0,0,0,0,0,0,2,2,0,0,0,0,0,0,0,0,0,0,0,0,0,0,0,0,
0,0,0,0,0,0,0,0,0,0,0,0,0,0,0,0,0,0,0,0,0,0,0,0,0,0,0,0,0,0,0,0,0,0,2,0,0,0,0,0,0,0,0,0,0,0,0,0,0,0,0,0,0,0,0,0,0,0,0,0,0,0,0,0,0,0,0,0,0,0,0,0,
0,0,0,0,0,0,0,0,0,0,0,0,0,0,0,0,0,0,0,0,0,0,0,0,0,0,0,0,0,0,0,0,0,0,2,0,0,0,0,2,2,0,0,0,0,0,0,0,0,0,0,0,0,0,0,0,2,2,2,2,0,0,0,0,0,0,0,0,0,0,0,0,
0,0,0,0,0,0,0,0,0,0,0,0,0,0,0,0,2,2,0,0,0,0,0,0,0,0,0,0,0,0,0,0,0,0,2,0,0,0,0,2,2,0,0,0,0,0,0,0,0,0,0,0,0,0,0,0,0,0,0,0,0,0,0,0,0,0,0,0,0,0,0,0,
0,0,0,0,0,0,0,0,0,0,0,0,0,2,0,0,2,2,0,0,0,0,0,0,0,0,0,0,0,0,0,0,0,0,2,0,0,0,0,0,0,0,0,0,0,0,0,0,0,0,0,0,0,0,0,0,2,0,0,0,0,0,0,0,0,0,0,0,0,0,0,0,
0,0,0,0,0,0,0,0,0,0,0,0,0,0,0,0,0,0,0,0,0,0,0,0,0,0,0,0,0,0,0,0,0,0,0,0,0,0,0,0,0,0,0,0,0,0,0,0,0,0,0,0,0,0,0,0,2,0,0,0,2,2,2,0,0,0,0,0,0,0,0,0,
0,0,0,0,0,0,0,0,0,0,0,0,0,0,0,0,0,0,0,0,0,0,0,0,0,0,0,0,0,0,0,0,0,0,0,0,0,0,0,0,0,0,0,0,0,0,0,0,0,0,0,0,0,0,0,0,2,0,0,0,0,0,0,0,0,0,0,0,0,0,0,0,
0,0,0,0,0,0,0,0,0,0,0,0,0,0,0,0,0,0,0,0,0,0,0,0,0,0,0,0,0,0,0,0,0,0,0,0,0,0,0,0,0,0,0,0,0,0,0,0,0,0,0,0,0,0,0,0,2,0,0,0,0,0,0,0,0,0,0,0,0,0,0,0,
0,0,0,0,0,0,0,0,0,0,0,2,0,0,0,0,0,0,0,0,0,0,2,2,2,2,0,0,0,0,0,0,0,0,0,0,0,0,0,0,0,0,0,0,0,0,0,0,0,0,0,0,0,0,0,0,0,0,0,0,0,0,0,0,0,0,0,0,0,0,0,0,
0,0,0,0,0,0,0,0,0,0,0,2,0,0,0,2,2,0,0,0,0,0,0,0,0,0,0,0,0,0,0,0,0,0,0,0,0,0,0,0,0,0,0,0,0,0,0,0,0,0,0,0,0,0,0,0,0,0,0,0,0,0,0,0,0,0,0,0,0,0,0,0,
0,0,0,0,0,0,0,0,0,0,0,0,0,0,0,2,2,0,0,0,0,0,0,0,0,2,0,0,0,0,0,0,0,0,2,2,2,0,0,0,0,0,0,0,0,0,0,2,2,0,0,0,0,0,0,0,0,0,0,0,0,0,0,0,0,0,0,0,0,0,0,0,
0,0,0,0,0,0,0,0,0,0,0,0,0,0,0,0,0,0,0,0,0,0,0,0,0,2,0,0,0,0,0,0,0,0,0,0,0,0,0,0,0,0,0,0,0,0,0,2,0,0,0,0,0,0,0,0,0,0,0,2,0,0,0,0,0,0,0,0,0,0,0,0,
0,0,0,0,0,0,0,0,0,0,0,0,0,0,0,0,0,0,0,0,0,0,0,0,0,2,0,2,2,0,0,0,0,0,0,0,0,2,0,0,0,0,0,0,0,0,0,2,0,0,0,0,0,0,0,0,0,0,0,2,0,0,0,0,0,0,0,0,0,0,0,0,
0,0,0,0,0,0,0,0,0,0,0,0,0,0,0,2,0,0,0,0,0,0,0,0,0,2,0,0,0,0,0,0,0,0,0,0,0,2,0,2,2,2,0,0,0,0,0,2,0,0,0,0,0,0,0,0,0,0,0,0,0,0,0,0,0,0,0,0,0,0,0,0,
0,0,0,0,0,0,0,0,0,0,0,0,2,0,0,0,0,0,0,0,0,0,0,0,0,0,0,0,0,0,0,0,2,2,2,0,0,2,0,2,2,2,0,0,0,0,0,2,0,0,0,0,0,0,0,0,0,0,0,0,0,0,0,0,0,0,0,0,0,0,0,0,
0,0,0,0,0,0,0,0,0,0,0,0,2,2,0,2,0,0,0,0,0,0,0,0,0,0,0,0,0,0,0,0,2,2,2,0,0,0,0,0,0,0,0,0,0,0,0,0,0,0,0,0,0,0,0,0,0,0,0,2,2,2,0,0,0,0,0,0,0,0,0,0,
0,0,0,0,0,0,0,0,0,0,0,0,2,0,0,2,0,0,0,0,0,0,0,0,0,0,0,0,0,0,0,0,0,0,0,0,0,0,0,0,0,0,0,0,0,0,0,0,0,0,0,0,0,0,0,0,0,0,0,2,0,0,0,0,0,0,0,0,0,0,0,0,
0,0,0,0,0,0,0,0,0,0,0,0,0,0,0,0,0,0,0,0,0,0,0,0,0,0,0,0,2,0,0,0,0,0,0,0,0,0,0,0,0,0,0,2,0,0,0,0,0,0,0,0,0,0,0,0,0,0,0,2,0,0,0,0,0,0,0,0,0,0,0,0,
0,0,0,0,0,0,0,0,0,0,0,0,0,0,0,0,0,0,0,0,2,0,0,0,0,0,0,0,2,0,0,0,0,0,0,0,0,0,0,0,0,0,0,2,0,0,0,0,0,0,0,0,0,0,0,0,2,2,2,2,0,0,0,0,0,0,0,0,0,0,0,0,
0,0,0,0,0,0,0,0,0,0,0,0,0,0,0,0,0,0,0,0,2,0,0,0,0,0,0,0,2,0,0,0,0,0,0,0,0,0,0,0,0,0,0,0,2,0,0,0,0,0,0,0,2,2,0,0,0,0,0,0,0,0,0,0,0,0,0,0,0,0,0,0,
0,0,0,0,0,0,0,0,0,0,0,2,2,0,0,0,0,0,0,0,2,0,0,0,0,0,0,0,2,0,0,0,0,0,0,0,0,0,0,0,0,0,0,0,2,0,0,0,0,0,0,0,2,0,0,0,0,0,0,0,0,0,0,0,0,0,0,0,0,0,0,0,
0,0,0,0,0,0,0,0,0,0,0,2,2,0,0,0,0,0,0,0,0,0,0,0,0,0,0,0,0,0,0,0,0,0,0,0,0,0,0,0,0,0,0,0,2,0,0,0,0,0,0,0,2,0,2,0,0,0,0,0,0,0,0,0,0,0,0,0,0,0,0,0,
0,0,0,0,0,0,0,0,0,0,0,0,0,2,2,0,0,0,0,0,0,0,0,0,0,0,0,0,0,0,0,0,0,0,0,0,0,0,0,0,0,0,0,2,0,0,0,0,0,0,0,0,0,0,2,0,0,0,0,0,0,0,0,0,0,0,0,0,0,0,0,0,
0,0,0,0,0,0,0,0,0,0,0,0,0,2,2,0,0,0,0,0,0,0,0,0,0,0,0,0,0,0,2,2,2,0,0,0,0,0,0,0,0,0,0,2,0,0,0,0,0,0,0,0,0,2,2,0,0,0,0,0,0,0,0,0,0,0,0,0,0,0,0,0,
0,0,0,0,0,0,0,0,0,0,0,0,0,0,0,2,2,2,2,0,0,0,0,0,0,0,0,0,0,0,2,2,2,0,0,0,0,0,0,0,0,0,0,0,0,0,0,0,0,0,0,0,0,0,0,0,0,0,0,0,0,0,0,0,0,0,0,0,0,0,0,0,
0,0,0,0,0,0,0,0,0,0,0,2,2,0,0,0,0,0,0,0,0,2,2,0,0,0,0,0,0,0,0,0,0,0,0,0,0,0,2,2,2,0,0,0,0,0,0,0,0,0,0,0,0,0,0,0,0,0,0,0,0,0,0,0,0,0,0,0,0,0,0,0,
0,0,0,0,0,0,0,0,0,0,0,0,2,0,0,0,0,2,0,0,0,0,0,0,2,2,2,2,0,0,0,0,0,0,0,0,0,0,2,2,2,0,0,0,0,0,0,0,0,0,0,0,0,0,0,0,0,0,0,0,0,0,0,0,0,0,0,0,0,0,0,0,
0,0,0,0,0,0,0,0,0,0,0,0,2,0,0,0,0,2,0,0,0,0,0,0,0,0,0,0,0,2,2,2,0,0,0,0,0,0,0,0,0,0,0,0,0,0,0,0,0,0,0,2,0,0,0,0,0,0,0,0,0,0,0,0,0,0,0,0,0,0,0,0,
0,0,0,0,0,0,0,0,0,0,0,0,0,0,0,0,0,0,0,0,0,0,0,0,0,0,0,0,0,0,0,0,0,2,2,2,0,0,0,0,0,0,0,0,0,0,0,2,0,0,0,2,0,0,0,0,0,0,0,0,0,0,0,0,0,0,0,0,0,0,0,0,
0,0,0,0,0,0,0,0,0,0,0,0,0,0,0,0,0,0,0,0,0,0,0,0,0,0,0,0,0,0,0,0,0,0,0,0,0,0,2,0,0,0,0,0,0,0,2,2,0,0,0,2,0,0,0,0,0,0,0,0,0,0,0,0,0,0,0,0,0,0,0,0,
0,0,0,0,0,0,0,0,0,0,0,0,0,0,0,0,2,2,2,0,0,0,0,0,0,0,2,0,0,0,0,0,0,0,0,0,0,0,2,2,2,2,0,0,0,0,0,0,0,0,0,2,0,0,0,0,0,0,0,0,0,0,0,0,0,0,0,0,0,0,0,0,
0,0,0,0,0,0,0,0,0,2,2,2,0,0,0,0,2,2,2,0,0,0,0,0,0,0,2,0,0,0,0,0,0,0,0,0,0,0,0,0,2,0,0,0,0,0,0,0,0,0,0,0,0,2,2,0,0,0,0,0,0,0,0,0,0,0,0,0,0,0,0,0,
0,0,0,0,0,0,0,0,0,0,2,0,0,0,0,0,0,0,0,0,0,0,0,0,0,0,2,0,0,0,0,0,0,0,0,0,0,0,0,0,2,0,0,0,0,0,0,0,0,0,0,0,0,0,0,0,0,0,0,0,0,0,0,0,0,0,0,0,0,0,0,0,
0,0,0,0,0,0,0,0,0,0,2,0,0,0,0,0,0,0,0,0,0,0,0,0,0,0,0,0,0,0,0,0,0,0,0,0,0,0,0,0,2,0,0,0,0,0,0,0,0,0,0,0,0,0,0,0,0,0,0,0,0,0,0,0,0,0,0,0,0,0,0,0,
0,0,0,0,0,0,0,0,0,0,0,0,0,0,0,0,0,0,0,0,0,0,0,0,0,0,0,0,0,0,0,0,0,0,0,0,0,0,0,0,0,0,0,0,0,0,0,0,0,0,0,2,0,0,0,0,0,0,0,0,0,0,0,0,0,0,0,0,0,0,0,0,
0,0,0,0,0,0,0,0,0,0,0,0,0,0,0,2,0,2,2,0,0,0,0,0,0,0,0,0,0,0,2,2,0,0,0,0,0,0,0,0,0,0,0,0,0,0,0,0,0,0,0,2,0,0,0,0,0,0,0,0,0,0,2,2,2,0,0,0,0,0,0,0,
0,0,0,0,0,0,0,0,2,2,0,0,0,0,0,2,0,2,0,0,0,0,0,0,0,0,0,0,0,0,2,2,0,0,0,0,0,0,0,0,0,0,0,0,0,0,0,0,0,0,0,2,0,0,0,0,2,2,2,2,0,0,2,2,2,0,0,0,0,0,0,0,
0,0,0,0,0,0,0,0,2,2,0,0,0,0,0,0,0,2,2,0,0,0,0,0,2,2,2,0,0,0,0,0,0,0,0,0,0,0,0,0,0,0,0,0,0,0,0,2,0,0,0,0,0,0,0,0,0,0,0,0,0,0,0,0,0,0,0,0,0,0,0,0,
0,0,0,0,0,0,0,0,0,0,0,0,0,0,0,0,0,0,0,0,0,0,0,0,0,0,0,0,0,0,0,0,0,2,0,0,0,0,0,0,0,0,0,0,0,0,0,2,0,0,0,0,0,0,0,2,0,0,0,0,0,0,0,0,0,0,0,0,0,0,0,0,
0,0,0,0,0,0,0,0,0,0,0,0,0,0,0,0,2,2,0,0,0,0,0,0,0,0,0,0,0,0,0,0,0,0,0,0,2,2,0,0,0,0,0,0,0,0,0,2,0,0,0,0,0,0,0,2,0,0,0,0,0,0,0,0,2,2,0,0,0,0,0,0,
0,0,0,0,0,0,0,0,0,2,2,2,0,0,0,0,0,0,0,0,0,0,0,0,0,0,0,0,0,0,0,0,0,0,0,0,0,2,0,0,0,0,0,0,0,0,0,0,0,0,0,2,2,2,0,2,0,0,0,0,0,0,0,0,2,2,0,0,0,0,0,0,
0,0,0,0,0,0,0,0,0,0,0,0,0,0,0,0,2,2,2,0,0,0,2,0,0,0,2,0,0,0,0,0,0,0,0,0,0,2,0,0,0,2,0,0,0,0,0,0,0,0,0,0,0,0,0,0,2,2,2,0,0,0,0,0,0,0,0,0,0,0,0,0,
0,0,0,0,0,0,0,0,0,0,0,0,0,0,0,0,0,0,2,0,0,0,0,0,0,0,2,0,0,0,0,0,0,0,0,0,0,0,0,0,0,2,0,0,0,0,0,0,0,0,0,0,0,0,0,0,0,0,0,0,0,0,2,2,0,0,0,0,0,0,0,0,
0,0,0,0,0,0,0,0,0,2,0,0,0,0,0,0,0,0,0,0,0,2,0,0,2,0,0,0,0,0,0,0,2,0,0,0,0,0,0,0,0,0,0,0,0,0,0,0,0,0,0,0,0,0,0,0,0,0,0,0,0,0,2,2,0,0,0,0,0,0,0,0,
0,0,0,0,0,0,0,0,0,2,2,0,0,0,0,0,0,0,0,0,0,0,0,0,0,0,0,0,0,0,0,0,0,0,0,0,0,0,0,0,0,0,0,0,0,0,0,0,0,0,0,0,0,0,0,0,0,0,0,0,0,0,0,0,0,0,0,0,0,0,0,0,
0,0,0,0,0,0,0,0,0,2,0,0,0,0,0,0,0,0,0,0,0,0,0,0,0,0,0,0,0,0,0,0,0,0,0,0,0,0,0,0,0,0,0,2,2,2,2,0,0,0,0,0,0,0,0,0,0,0,0,0,0,0,0,0,0,0,0,0,0,0,0,0,
0,0,0,0,0,0,0,0,0,0,0,0,0,0,0,0,0,0,0,0,0,0,0,0,0,0,0,0,0,0,0,0,0,0,0,0,0,0,0,0,0,0,0,0,0,0,0,0,0,0,0,0,0,0,0,0,0,0,0,0,0,0,0,0,0,0,0,0,0,0,0,0,
0,0,0,0,0,0,0,0,0,0,0,0,0,0,0,0,0,0,0,0,0,0,0,0,0,0,0,0,0,0,0,0,0,0,0,0,0,0,0,0,0,0,0,0,0,0,0,0,0,0,0,0,0,0,0,0,0,0,0,0,0,0,0,0,0,0,0,0,0,0,0,0,
0,0,0,0,0,0,0,0,0,0,0,0,0,0,0,0,0,0,0,0,0,0,0,0,0,0,0,0,0,0,0,0,0,0,0,0,0,0,0,0,0,0,0,0,0,0,0,0,0,0,0,0,0,0,0,0,0,0,0,0,0,0,0,0,0,0,0,0,0,0,0,0,
0,0,0,0,0,0,0,0,0,0,0,0,0,0,0,0,0,0,0,0,0,0,0,0,0,0,0,0,0,0,0,0,0,0,0,0,0,0,0,0,0,0,0,0,0,0,0,0,0,0,0,0,0,0,0,0,0,0,0,0,0,0,0,0,0,0,0,0,0,0,0,0,
0,0,0,0,0,0,0,0,0,0,0,0,0,0,0,0,0,0,0,0,0,0,0,0,0,0,0,0,0,0,0,0,0,0,0,0,0,0,0,0,0,0,0,0,0,0,0,0,0,0,0,0,0,0,0,0,0,0,0,0,0,0,0,0,0,0,0,0,0,0,0,0,
0,0,0,0,0,0,0,0,0,0,0,0,0,0,0,0,0,0,0,0,0,0,0,0,0,0,0,0,0,0,0,0,0,0,0,0,0,0,0,0,0,0,0,0,0,0,0,0,0,0,0,0,0,0,0,0,0,0,0,0,0,0,0,0,0,0,0,0,0,0,0,0,
0,0,0,0,0,0,0,0,0,0,0,0,0,0,0,0,0,0,0,0,0,0,0,0,0,0,0,0,0,0,0,0,0,0,0,0,0,0,0,0,0,0,0,0,0,0,0,0,0,0,0,0,0,0,0,0,0,0,0,0,0,0,0,0,0,0,0,0,0,0,0,0,
0,0,0,0,0,0,0,0,0,0,0,0,0,0,0,0,0,0,0,0,0,0,0,0,0,0,0,0,0,0,0,0,0,0,0,0,0,0,0,0,0,0,0,0,0,0,0,0,0,0,0,0,0,0,0,0,0,0,0,0,0,0,0,0,0,0,0,0,0,0,0,0,
0,0,0,0,0,0,0,0,0,0,0,0,0,0,0,0,0,0,0,0,0,0,0,0,0,0,0,0,0,0,0,0,0,0,0,0,0,0,0,0,0,0,0,0,0,0,0,0,0,0,0,0,0,0,0,0,0,0,0,0,0,0,0,0,0,0,0,0,0,0,0,0
</data>
 </layer>
 <objectgroup color="#000000" id="9" name="R1&gt;R4&gt;R6&gt;R7" visible="0">
  <object id="29" x="460" y="650.667">
   <point/>
  </object>
  <object id="30" x="462.667" y="786.667">
   <point/>
  </object>
  <object id="31" x="553.333" y="1025.33">
   <point/>
  </object>
  <object id="32" x="434.667" y="957.333">
   <point/>
  </object>
  <object id="33" x="388" y="1088">
   <point/>
  </object>
  <object id="34" x="441.333" y="1196">
   <point/>
  </object>
  <object id="35" x="532" y="1277.33">
   <point/>
  </object>
  <object id="36" x="425.333" y="1384">
   <point/>
  </object>
  <object id="37" x="506.667" y="1477.33">
   <point/>
  </object>
  <object id="38" x="660" y="1634.67">
   <point/>
  </object>
  <object id="39" x="324" y="1634.67">
   <point/>
  </object>
  <object id="40" x="400" y="1825.33">
   <point/>
  </object>
  <object id="41" x="752" y="1725.33">
   <point/>
  </object>
  <object id="42" x="496" y="1914.67">
   <point/>
  </object>
  <object id="43" x="641.333" y="1870.67">
   <point/>
  </object>
  <object id="44" x="821.333" y="1850.67">
   <point/>
  </object>
  <object id="69" x="376" y="554.667">
   <point/>
  </object>
  <object id="151" x="1244" y="1884">
   <point/>
  </object>
  <object id="152" x="1392" y="1730">
   <point/>
  </object>
  <object id="153" x="1588" y="1596">
   <point/>
  </object>
  <object id="154" x="1750" y="1992">
   <point/>
  </object>
  <object id="155" x="1974" y="1804">
   <point/>
  </object>
 </objectgroup>
 <objectgroup color="#aa0000" id="10" name="R1&gt;R2&gt;R3&gt;R5&gt;R7" visible="0">
  <object id="45" x="568" y="412">
   <point/>
  </object>
  <object id="46" x="809.333" y="449.333">
   <point/>
  </object>
  <object id="48" x="1120" y="426.667">
   <point/>
  </object>
  <object id="49" x="1250.67" y="494.667">
   <point/>
  </object>
  <object id="50" x="1357.33" y="626.667">
   <point/>
  </object>
  <object id="51" x="1452" y="446.667">
   <point/>
  </object>
  <object id="52" x="1616" y="544">
   <point/>
  </object>
  <object id="54" x="1716" y="448">
   <point/>
  </object>
  <object id="55" x="1909.33" y="386.667">
   <point/>
  </object>
  <object id="56" x="1858.67" y="530.667">
   <point/>
  </object>
  <object id="57" x="1906.67" y="696">
   <point/>
  </object>
  <object id="58" x="1970.67" y="848">
   <point/>
  </object>
  <object id="59" x="1846.67" y="977.333">
   <point/>
  </object>
  <object id="60" x="1729.33" y="768">
   <point/>
  </object>
  <object id="61" x="1641.33" y="881.333">
   <point/>
  </object>
  <object id="62" x="1560" y="1016">
   <point/>
  </object>
  <object id="63" x="1538.67" y="1158.67">
   <point/>
  </object>
  <object id="64" x="1616" y="1217.33">
   <point/>
  </object>
  <object id="65" x="1848" y="1113.33">
   <point/>
  </object>
  <object id="66" x="1784" y="1226.67">
   <point/>
  </object>
  <object id="67" x="1838.67" y="1333.33">
   <point/>
  </object>
  <object id="68" x="1940" y="1382.67">
   <point/>
  </object>
  <object id="70" x="454.667" y="456">
   <point/>
  </object>
  <object id="105" x="1005.33" y="425.333">
   <point/>
  </object>
  <object id="146" x="1890" y="1578">
   <point/>
  </object>
  <object id="147" x="1974" y="1804">
   <point/>
  </object>
  <object id="148" x="1590" y="1594">
   <point/>
  </object>
  <object id="149" x="1746" y="1990">
   <point/>
  </object>
  <object id="150" x="1396" y="1726">
   <point/>
  </object>
 </objectgroup>
 <objectgroup color="#00007f" id="11" name="R1&gt;Center&gt;R6&gt;R7" visible="0">
  <object id="71" x="374.667" y="554.667">
   <point/>
  </object>
  <object id="72" x="520" y="576">
   <point/>
  </object>
  <object id="73" x="650.667" y="706.667">
   <point/>
  </object>
  <object id="74" x="757.333" y="793.333">
   <point/>
  </object>
  <object id="75" x="910.667" y="898.667">
   <point/>
  </object>
  <object id="76" x="776" y="994.667">
   <point/>
  </object>
  <object id="77" x="993.333" y="977.333">
   <point/>
  </object>
  <object id="78" x="1156" y="1010.67">
   <point/>
  </object>
  <object id="79" x="1089.33" y="1136">
   <point/>
  </object>
  <object id="80" x="880" y="1052">
   <point/>
  </object>
  <object id="81" x="878.667" y="1234.67">
   <point/>
  </object>
  <object id="82" x="929.333" y="1341.33">
   <point/>
  </object>
  <object id="83" x="1065.33" y="1264">
   <point/>
  </object>
  <object id="84" x="1120" y="1410.67">
   <point/>
  </object>
  <object id="85" x="1188" y="1513.33">
   <point/>
  </object>
  <object id="86" x="1249.33" y="1616">
   <point/>
  </object>
  <object id="87" x="1294.67" y="1754.67">
   <point/>
  </object>
  <object id="88" x="1240" y="1885.33">
   <point/>
  </object>
  <object id="89" x="1094.67" y="1861.33">
   <point/>
  </object>
  <object id="90" x="969.333" y="1845.33">
   <point/>
  </object>
  <object id="91" x="822.667" y="1846.67">
   <point/>
  </object>
  <object id="92" x="894.667" y="1480">
   <point/>
  </object>
  <object id="93" x="772" y="1554.67">
   <point/>
  </object>
  <object id="94" x="661.333" y="1637.33">
   <point/>
  </object>
  <object id="95" x="750.667" y="1724">
   <point/>
  </object>
  <object id="138" x="1390" y="1734">
   <point/>
  </object>
  <object id="140" x="1572" y="1736">
   <point/>
  </object>
  <object id="141" x="1460" y="1872">
   <point/>
  </object>
  <object id="142" x="1350" y="1650">
   <point/>
  </object>
  <object id="143" x="1436" y="1586">
   <point/>
  </object>
  <object id="144" x="1590" y="1598">
   <point/>
  </object>
  <object id="145" x="1728" y="1772">
   <point/>
  </object>
 </objectgroup>
 <objectgroup color="#aa007f" id="12" name="R1&gt;Center&gt;R5&gt;R7" visible="0">
  <object id="97" x="456" y="456">
   <point/>
  </object>
  <object id="100" x="568" y="410.667">
   <point/>
  </object>
  <object id="101" x="720" y="516">
   <point/>
  </object>
  <object id="102" x="817.333" y="714.667">
   <point/>
  </object>
  <object id="106" x="1010.67" y="700">
   <point/>
  </object>
  <object id="107" x="1148" y="844">
   <point/>
  </object>
  <object id="108" x="1397.33" y="788">
   <point/>
  </object>
  <object id="109" x="1280" y="924">
   <point/>
  </object>
  <object id="110" x="1474.67" y="886.667">
   <point/>
  </object>
  <object id="111" x="1404" y="1074.67">
   <point/>
  </object>
  <object id="112" x="1306.67" y="1189.33">
   <point/>
  </object>
  <object id="113" x="1504" y="1214.67">
   <point/>
  </object>
  <object id="114" x="1333.33" y="1316">
   <point/>
  </object>
  <object id="115" x="1436" y="1416">
   <point/>
  </object>
  <object id="116" x="1580" y="1441.33">
   <point/>
  </object>
  <object id="117" x="1693.33" y="1385.33">
   <point/>
  </object>
  <object id="118" x="1732" y="1269.33">
   <point/>
  </object>
  <object id="119" x="1617.33" y="1213.33">
   <point/>
  </object>
  <object id="120" x="1782.67" y="1226.67">
   <point/>
  </object>
  <object id="121" x="1844" y="1329.33">
   <point/>
  </object>
  <object id="122" x="1942.67" y="1382.67">
   <point/>
  </object>
  <object id="123" x="1892" y="1580">
   <point/>
  </object>
  <object id="124" x="2026" y="1660">
   <point/>
  </object>
  <object id="125" x="1974" y="1800">
   <point/>
  </object>
  <object id="126" x="1588" y="1596">
   <point/>
  </object>
  <object id="127" x="1858" y="1850">
   <point/>
  </object>
  <object id="128" x="1726" y="1770">
   <point/>
  </object>
  <object id="129" x="1572" y="1736">
   <point/>
  </object>
  <object id="130" x="2058" y="1890">
   <point/>
  </object>
  <object id="131" x="2046" y="2020">
   <point/>
  </object>
  <object id="132" x="1748" y="1992">
   <point/>
  </object>
  <object id="133" x="1456" y="1870">
   <point/>
  </object>
  <object id="134" x="1560" y="2042">
   <point/>
  </object>
  <object id="135" x="1432" y="1582">
   <point/>
  </object>
  <object id="136" x="1390" y="1732">
   <point/>
  </object>
  <object id="137" x="1350" y="1644">
   <point/>
  </object>
 </objectgroup>
 <objectgroup color="#e74c3c" id="13" name="Design_Combat" opacity="0.85">
  <object id="156" name="C01_R1出口决策区" type="Combat" x="644" y="644" width="24" height="24">
   <properties>
    <property name="Description" value="R1离开房间后的首个潜在遭遇区：外围与中心方向开始分化。"/>
    <property name="GridX" value="20"/>
    <property name="GridY" value="20"/>
    <property name="Priority" value="High"/>
   </properties>
  </object>
  <object id="157" name="C02_R4中段遭遇区" type="Combat" x="452" y="1220" width="24" height="24">
   <properties>
    <property name="Description" value="西侧外围路线的短距离绕行遭遇区。"/>
    <property name="GridX" value="14"/>
    <property name="GridY" value="38"/>
    <property name="Priority" value="Medium"/>
   </properties>
  </object>
  <object id="158" name="C03_Center高危核心" type="Combat" x="1156" y="1028" width="24" height="24">
   <properties>
    <property name="Description" value="多方向进入、高暴露；承担Center的高风险战斗。"/>
    <property name="GridX" value="36"/>
    <property name="GridY" value="32"/>
    <property name="Priority" value="High"/>
   </properties>
  </object>
  <object id="159" name="C04_R5汇流区" type="Combat" x="1988" y="1284" width="24" height="24">
   <properties>
    <property name="Description" value="北侧外围与Center方向在R5附近可能重新汇流。"/>
    <property name="GridX" value="62"/>
    <property name="GridY" value="40"/>
    <property name="Priority" value="Medium"/>
   </properties>
  </object>
  <object id="160" name="C05_R6汇流区" type="Combat" x="900" y="1828" width="24" height="24">
   <properties>
    <property name="Description" value="西侧外围与Center方向在R6附近可能重新汇流。"/>
    <property name="GridX" value="28"/>
    <property name="GridY" value="57"/>
    <property name="Priority" value="Medium"/>
   </properties>
  </object>
  <object id="176" name="C07_R1内部短交火" type="Skirmish" x="388.8" y="580.8" width="22.4" height="22.4">
   <properties>
    <property name="Description" value="R1内部掩体较多，适合短距离试探性遭遇；强度低于出口决策区。"/>
    <property name="GridX" value="12"/>
    <property name="GridY" value="18"/>
    <property name="Priority" value="Low"/>
    <property name="Region" value="R1"/>
   </properties>
  </object>
  <object id="177" name="C08_R1北侧压迫点" type="Pressure" x="612.8" y="292.8" width="22.4" height="22.4">
   <properties>
    <property name="Description" value="靠近R1北侧通行空间，作为从R1向北部外围移动时的轻度压力点。"/>
    <property name="GridX" value="19"/>
    <property name="GridY" value="9"/>
    <property name="Priority" value="Low"/>
    <property name="Region" value="R1"/>
   </properties>
  </object>
  <object id="178" name="C09_R2候车区交火" type="Skirmish" x="1156.8" y="580.8" width="22.4" height="22.4">
   <properties>
    <property name="Description" value="R2较宽阔，适合利用长椅/信息设施形成中距离交火。"/>
    <property name="GridX" value="36"/>
    <property name="GridY" value="18"/>
    <property name="Priority" value="Medium"/>
    <property name="Region" value="R2"/>
   </properties>
  </object>
  <object id="179" name="C10_R2东侧转角" type="CornerFight" x="1572.8" y="548.8" width="22.4" height="22.4">
   <properties>
    <property name="Description" value="R2通向R3方向的转折处，适合作为侧向突袭与观察点。"/>
    <property name="GridX" value="49"/>
    <property name="GridY" value="17"/>
    <property name="Priority" value="Medium"/>
    <property name="Region" value="R2"/>
   </properties>
  </object>
  <object id="180" name="C11_R3狭窄遭遇" type="ChokeFight" x="1956.8" y="644.8" width="22.4" height="22.4">
   <properties>
    <property name="Description" value="R3空间较窄，适合形成更强的近距离压迫。"/>
    <property name="GridX" value="61"/>
    <property name="GridY" value="20"/>
    <property name="Priority" value="Medium"/>
    <property name="Region" value="R3"/>
   </properties>
  </object>
  <object id="181" name="C12_R4南侧推进" type="PushZone" x="548.8" y="1476.8" width="22.4" height="22.4">
   <properties>
    <property name="Description" value="R4向R6过渡前的推进区，掩体应支持分段推进。"/>
    <property name="GridX" value="17"/>
    <property name="GridY" value="46"/>
    <property name="Priority" value="Medium"/>
    <property name="Region" value="R4"/>
   </properties>
  </object>
  <object id="182" name="C13_Center西侧入口" type="EntryFight" x="868.8" y="996.8" width="22.4" height="22.4">
   <properties>
    <property name="Description" value="进入Center前的西侧入口交火，属于高风险区外围。"/>
    <property name="GridX" value="27"/>
    <property name="GridY" value="31"/>
    <property name="Priority" value="High"/>
    <property name="Region" value="Center"/>
   </properties>
  </object>
  <object id="183" name="C14_Center东侧入口" type="EntryFight" x="1572.8" y="1124.8" width="22.4" height="22.4">
   <properties>
    <property name="Description" value="Center东侧进入点，可能承接来自R5方向的玩家。"/>
    <property name="GridX" value="49"/>
    <property name="GridY" value="35"/>
    <property name="Priority" value="High"/>
    <property name="Region" value="Center"/>
   </properties>
  </object>
  <object id="184" name="C15_Center南侧穿越" type="ExposureFight" x="1220.8" y="1444.8" width="22.4" height="22.4">
   <properties>
    <property name="Description" value="Center南部较开放区域，强调暴露穿越而非贴掩体推进。"/>
    <property name="GridX" value="38"/>
    <property name="GridY" value="45"/>
    <property name="Priority" value="High"/>
    <property name="Region" value="Center"/>
   </properties>
  </object>
  <object id="185" name="C16_R5内部短交火" type="Skirmish" x="1956.8" y="1412.8" width="22.4" height="22.4">
   <properties>
    <property name="Description" value="R5内部的小型遭遇，用于给撤离方向增加最后一段不确定性。"/>
    <property name="GridX" value="61"/>
    <property name="GridY" value="44"/>
    <property name="Priority" value="Medium"/>
    <property name="Region" value="R5"/>
   </properties>
  </object>
  <object id="186" name="C17_R6内部交火" type="Skirmish" x="996.8" y="1924.8" width="22.4" height="22.4">
   <properties>
    <property name="Description" value="R6内部的撤离前压力点，避免撤离区完全安全。"/>
    <property name="GridX" value="31"/>
    <property name="GridY" value="60"/>
    <property name="Priority" value="Medium"/>
    <property name="Region" value="R6"/>
   </properties>
  </object>
  <object id="187" name="C18_R7可选高压点" type="OptionalFight" x="1732.8" y="1892.8" width="22.4" height="22.4">
   <properties>
    <property name="Description" value="R7作为额外探索区，可配置更高收益和更明显的风险。"/>
    <property name="GridX" value="54"/>
    <property name="GridY" value="59"/>
    <property name="Priority" value="High"/>
    <property name="Region" value="R7"/>
   </properties>
  </object>
 </objectgroup>
 <objectgroup color="#f1c40f" id="14" name="Design_Loot" opacity="0.85">
  <object id="161" name="L01_R1基础资源" type="Loot" x="420" y="388" width="24" height="24">
   <properties>
    <property name="Description" value="开局低—中价值资源，鼓励玩家先在R1内部搜索。"/>
    <property name="GridX" value="13"/>
    <property name="GridY" value="12"/>
    <property name="Priority" value="Low"/>
   </properties>
  </object>
  <object id="162" name="L02_R2外围资源" type="Loot" x="1124" y="388" width="24" height="24">
   <properties>
    <property name="Description" value="北侧外围的稳定资源点。"/>
    <property name="GridX" value="35"/>
    <property name="GridY" value="12"/>
    <property name="Priority" value="Medium"/>
   </properties>
  </object>
  <object id="163" name="L03_R3外围资源" type="Loot" x="1956" y="388" width="24" height="24">
   <properties>
    <property name="Description" value="R3内部资源点，延续北侧外围探索收益。"/>
    <property name="GridX" value="61"/>
    <property name="GridY" value="12"/>
    <property name="Priority" value="Medium"/>
   </properties>
  </object>
  <object id="164" name="L04_R4外围资源" type="Loot" x="516" y="1412" width="24" height="24">
   <properties>
    <property name="Description" value="西侧外围的稳定资源点。"/>
    <property name="GridX" value="16"/>
    <property name="GridY" value="44"/>
    <property name="Priority" value="Medium"/>
   </properties>
  </object>
  <object id="165" name="L05_Center高价值资源" type="Loot" x="964" y="1348" width="24" height="24">
   <properties>
    <property name="Description" value="Center高价值资源，与高暴露和多方向遭遇绑定。"/>
    <property name="GridX" value="30"/>
    <property name="GridY" value="42"/>
    <property name="Priority" value="High"/>
   </properties>
  </object>
  <object id="166" name="L06_R5撤离向资源" type="Loot" x="1924" y="1060" width="24" height="24">
   <properties>
    <property name="Description" value="R5方向中价值资源。"/>
    <property name="GridX" value="60"/>
    <property name="GridY" value="33"/>
    <property name="Priority" value="Medium"/>
   </properties>
  </object>
  <object id="167" name="L07_R6撤离向资源" type="Loot" x="580" y="1764" width="24" height="24">
   <properties>
    <property name="Description" value="R6方向中价值资源。"/>
    <property name="GridX" value="18"/>
    <property name="GridY" value="55"/>
    <property name="Priority" value="Medium"/>
   </properties>
  </object>
  <object id="168" name="L08_R7可选探索资源" type="Loot" x="1604" y="1764" width="24" height="24">
   <properties>
    <property name="Description" value="额外探索收益，吸引玩家在基础撤离目标之外继续深入。"/>
    <property name="GridX" value="50"/>
    <property name="GridY" value="55"/>
    <property name="Priority" value="High"/>
   </properties>
  </object>
  <object id="188" name="L09_R1边角资源" type="CommonLoot" x="260.8" y="644.8" width="22.4" height="22.4">
   <properties>
    <property name="Description" value="R1边角资源，奖励玩家扫完整个出生区而不是直接离开。"/>
    <property name="GridX" value="8"/>
    <property name="GridY" value="20"/>
    <property name="Priority" value="Low"/>
    <property name="Region" value="R1"/>
   </properties>
  </object>
  <object id="189" name="L10_R1高风险小资源" type="RiskLoot" x="612.8" y="612.8" width="22.4" height="22.4">
   <properties>
    <property name="Description" value="靠近R1出口决策区，资源价值略高但更容易遭遇。"/>
    <property name="GridX" value="19"/>
    <property name="GridY" value="19"/>
    <property name="Priority" value="Medium"/>
    <property name="Region" value="R1"/>
   </properties>
  </object>
  <object id="190" name="L11_R2座椅区资源" type="CommonLoot" x="1252.8" y="580.8" width="22.4" height="22.4">
   <properties>
    <property name="Description" value="候车厅常规资源，作为外围稳定收益的一部分。"/>
    <property name="GridX" value="39"/>
    <property name="GridY" value="18"/>
    <property name="Priority" value="Medium"/>
    <property name="Region" value="R2"/>
   </properties>
  </object>
  <object id="191" name="L12_R2东侧资源" type="CommonLoot" x="1572.8" y="388.8" width="22.4" height="22.4">
   <properties>
    <property name="Description" value="R2靠近R3方向的资源点，鼓励继续向北部外围探索。"/>
    <property name="GridX" value="49"/>
    <property name="GridY" value="12"/>
    <property name="Priority" value="Medium"/>
    <property name="Region" value="R2"/>
   </properties>
  </object>
  <object id="192" name="L13_R3站务资源" type="UtilityLoot" x="2084.8" y="516.8" width="22.4" height="22.4">
   <properties>
    <property name="Description" value="R3站务空间中的功能型资源，数量少但价值较集中。"/>
    <property name="GridX" value="65"/>
    <property name="GridY" value="16"/>
    <property name="Priority" value="Medium"/>
    <property name="Region" value="R3"/>
   </properties>
  </object>
  <object id="193" name="L14_R4行李区资源" type="CommonLoot" x="356.8" y="996.8" width="22.4" height="22.4">
   <properties>
    <property name="Description" value="R4内部稳定资源，结合行李/托运空间逻辑。"/>
    <property name="GridX" value="11"/>
    <property name="GridY" value="31"/>
    <property name="Priority" value="Medium"/>
    <property name="Region" value="R4"/>
   </properties>
  </object>
  <object id="194" name="L15_R4南侧资源" type="CommonLoot" x="580.8" y="1476.8" width="22.4" height="22.4">
   <properties>
    <property name="Description" value="R4向R6移动前的补充资源。"/>
    <property name="GridX" value="18"/>
    <property name="GridY" value="46"/>
    <property name="Priority" value="Low"/>
    <property name="Region" value="R4"/>
   </properties>
  </object>
  <object id="195" name="L16_Center西侧诱饵资源" type="RiskLoot" x="868.8" y="1092.8" width="22.4" height="22.4">
   <properties>
    <property name="Description" value="Center边缘的高风险诱饵资源，引导玩家踏入中央区域。"/>
    <property name="GridX" value="27"/>
    <property name="GridY" value="34"/>
    <property name="Priority" value="High"/>
    <property name="Region" value="Center"/>
   </properties>
  </object>
  <object id="196" name="L17_Center南侧高值资源" type="HighValueLoot" x="1252.8" y="1412.8" width="22.4" height="22.4">
   <properties>
    <property name="Description" value="中央区域第二个高价值点，避免所有玩家只争抢单一中心点。"/>
    <property name="GridX" value="39"/>
    <property name="GridY" value="44"/>
    <property name="Priority" value="High"/>
    <property name="Region" value="Center"/>
   </properties>
  </object>
  <object id="197" name="L18_R5内部资源" type="CommonLoot" x="1988.8" y="1348.8" width="22.4" height="22.4">
   <properties>
    <property name="Description" value="R5内部稳定资源，用于支撑该撤离方向。"/>
    <property name="GridX" value="62"/>
    <property name="GridY" value="42"/>
    <property name="Priority" value="Medium"/>
    <property name="Region" value="R5"/>
   </properties>
  </object>
  <object id="198" name="L19_R5边缘补给" type="UtilityLoot" x="1860.8" y="1508.8" width="22.4" height="22.4">
   <properties>
    <property name="Description" value="R5靠近边缘的功能型补给，价值低但实用。"/>
    <property name="GridX" value="58"/>
    <property name="GridY" value="47"/>
    <property name="Priority" value="Low"/>
    <property name="Region" value="R5"/>
   </properties>
  </object>
  <object id="199" name="L20_R6内部资源" type="CommonLoot" x="868.8" y="1924.8" width="22.4" height="22.4">
   <properties>
    <property name="Description" value="R6内部常规资源，支撑撤离前短暂搜索。"/>
    <property name="GridX" value="27"/>
    <property name="GridY" value="60"/>
    <property name="Priority" value="Medium"/>
    <property name="Region" value="R6"/>
   </properties>
  </object>
  <object id="200" name="L21_R6高风险补给" type="RiskLoot" x="1124.8" y="1796.8" width="22.4" height="22.4">
   <properties>
    <property name="Description" value="靠近汇流点，奖励承担撤离前遭遇风险。"/>
    <property name="GridX" value="35"/>
    <property name="GridY" value="56"/>
    <property name="Priority" value="Medium"/>
    <property name="Region" value="R6"/>
   </properties>
  </object>
  <object id="201" name="L22_R7深处高值资源" type="HighValueLoot" x="1924.8" y="1860.8" width="22.4" height="22.4">
   <properties>
    <property name="Description" value="R7深处额外高价值资源，强化可选探索区的吸引力。"/>
    <property name="GridX" value="60"/>
    <property name="GridY" value="58"/>
    <property name="Priority" value="High"/>
    <property name="Region" value="R7"/>
   </properties>
  </object>
  <object id="202" name="L23_R7边角资源" type="OptionalLoot" x="1540.8" y="2020.8" width="22.4" height="22.4">
   <properties>
    <property name="Description" value="可选区域边角资源，让R7不是单点式探索。"/>
    <property name="GridX" value="48"/>
    <property name="GridY" value="63"/>
    <property name="Priority" value="Medium"/>
    <property name="Region" value="R7"/>
   </properties>
  </object>
 </objectgroup>
 <objectgroup color="#3498db" id="15" name="Design_Interact" opacity="0.85">
  <object id="169" name="I01_R1售票终端" type="Interact" x="548" y="516" width="24" height="24">
   <properties>
    <property name="Description" value="售票机/时刻表终端；强化R1的车站功能。"/>
    <property name="GridX" value="17"/>
    <property name="GridY" value="16"/>
    <property name="Priority" value="Low"/>
   </properties>
  </object>
  <object id="170" name="I02_R2信息牌" type="Interact" x="1348" y="516" width="24" height="24">
   <properties>
    <property name="Description" value="候车信息牌或大型时刻表；提供空间识别与环境叙事。"/>
    <property name="GridX" value="42"/>
    <property name="GridY" value="16"/>
    <property name="Priority" value="Medium"/>
   </properties>
  </object>
  <object id="171" name="I03_R3站务设施" type="Interact" x="2052" y="580" width="24" height="24">
   <properties>
    <property name="Description" value="站务设备/服务终端；可承载局部机关或信息交互。"/>
    <property name="GridX" value="64"/>
    <property name="GridY" value="18"/>
    <property name="Priority" value="Medium"/>
   </properties>
  </object>
  <object id="172" name="I04_Center中央地标" type="Interact" x="1412" y="996" width="24" height="24">
   <properties>
    <property name="Description" value="中央大钟/信息台；作为Center最强空间Landmark。"/>
    <property name="GridX" value="44"/>
    <property name="GridY" value="31"/>
    <property name="Priority" value="High"/>
   </properties>
  </object>
  <object id="173" name="I05_R5服务设施" type="Interact" x="2052" y="1476" width="24" height="24">
   <properties>
    <property name="Description" value="服务台/控制面板等局部交互。"/>
    <property name="GridX" value="64"/>
    <property name="GridY" value="46"/>
    <property name="Priority" value="Medium"/>
   </properties>
  </object>
  <object id="174" name="I06_R6到达区设施" type="Interact" x="1092" y="1988" width="24" height="24">
   <properties>
    <property name="Description" value="到达区闸机、行李设施或离场前交互。"/>
    <property name="GridX" value="34"/>
    <property name="GridY" value="62"/>
    <property name="Priority" value="Medium"/>
   </properties>
  </object>
  <object id="175" name="I07_R7站台控制" type="Interact" x="1988" y="1988" width="24" height="24">
   <properties>
    <property name="Description" value="站台/换乘控制设施；可用于额外探索或任务触发。"/>
    <property name="GridX" value="62"/>
    <property name="GridY" value="62"/>
    <property name="Priority" value="Medium"/>
   </properties>
  </object>
  <object id="203" name="I08_R1检票设备" type="UtilityInteract" x="260.8" y="388.8" width="22.4" height="22.4">
   <properties>
    <property name="Description" value="检票闸机/验证设备，强化售票区功能。"/>
    <property name="GridX" value="8"/>
    <property name="GridY" value="12"/>
    <property name="Priority" value="Low"/>
    <property name="Region" value="R1"/>
   </properties>
  </object>
  <object id="204" name="I09_R1路线导视" type="Information" x="676.8" y="452.8" width="22.4" height="22.4">
   <properties>
    <property name="Description" value="路线导视牌，可用于提示R2/R4/Center方向。"/>
    <property name="GridX" value="21"/>
    <property name="GridY" value="14"/>
    <property name="Priority" value="Medium"/>
    <property name="Region" value="R1"/>
   </properties>
  </object>
  <object id="205" name="I10_R2候车广播" type="Information" x="1060.8" y="644.8" width="22.4" height="22.4">
   <properties>
    <property name="Description" value="广播/时刻表设施，强化主候车厅身份。"/>
    <property name="GridX" value="33"/>
    <property name="GridY" value="20"/>
    <property name="Priority" value="Low"/>
    <property name="Region" value="R2"/>
   </properties>
  </object>
  <object id="206" name="I11_R2自助设备" type="UtilityInteract" x="1540.8" y="580.8" width="22.4" height="22.4">
   <properties>
    <property name="Description" value="自动售货机、自助终端等轻交互设施。"/>
    <property name="GridX" value="48"/>
    <property name="GridY" value="18"/>
    <property name="Priority" value="Low"/>
    <property name="Region" value="R2"/>
   </properties>
  </object>
  <object id="207" name="I12_R3站务门禁" type="GateInteract" x="1956.8" y="420.8" width="22.4" height="22.4">
   <properties>
    <property name="Description" value="站务区门禁/权限设备，可作为轻任务交互。"/>
    <property name="GridX" value="61"/>
    <property name="GridY" value="13"/>
    <property name="Priority" value="Medium"/>
    <property name="Region" value="R3"/>
   </properties>
  </object>
  <object id="208" name="I13_R4行李传送带" type="UtilityInteract" x="388.8" y="1252.8" width="22.4" height="22.4">
   <properties>
    <property name="Description" value="行李传送设施，可作为环境交互或任务对象。"/>
    <property name="GridX" value="12"/>
    <property name="GridY" value="39"/>
    <property name="Priority" value="Medium"/>
    <property name="Region" value="R4"/>
   </properties>
  </object>
  <object id="209" name="I14_R4称重台" type="UtilityInteract" x="580.8" y="996.8" width="22.4" height="22.4">
   <properties>
    <property name="Description" value="称重/托运台，用于强化区域功能识别。"/>
    <property name="GridX" value="18"/>
    <property name="GridY" value="31"/>
    <property name="Priority" value="Low"/>
    <property name="Region" value="R4"/>
   </properties>
  </object>
  <object id="210" name="I15_Center时刻总表" type="LandmarkInteract" x="996.8" y="932.8" width="22.4" height="22.4">
   <properties>
    <property name="Description" value="中央时刻总表，与大钟共同构成Center地标系统。"/>
    <property name="GridX" value="31"/>
    <property name="GridY" value="29"/>
    <property name="Priority" value="High"/>
    <property name="Region" value="Center"/>
   </properties>
  </object>
  <object id="211" name="I16_Center广播台" type="UtilityInteract" x="1348.8" y="1284.8" width="22.4" height="22.4">
   <properties>
    <property name="Description" value="中央广播/服务台，可用于任务触发或全局信息。"/>
    <property name="GridX" value="42"/>
    <property name="GridY" value="40"/>
    <property name="Priority" value="Medium"/>
    <property name="Region" value="Center"/>
   </properties>
  </object>
  <object id="212" name="I17_Center应急设施" type="UtilityInteract" x="1604.8" y="1444.8" width="22.4" height="22.4">
   <properties>
    <property name="Description" value="应急门控/警报设施，为高风险中心区增加机制可能。"/>
    <property name="GridX" value="50"/>
    <property name="GridY" value="45"/>
    <property name="Priority" value="Medium"/>
    <property name="Region" value="Center"/>
   </properties>
  </object>
  <object id="213" name="I18_R5商店终端" type="UtilityInteract" x="1860.8" y="1188.8" width="22.4" height="22.4">
   <properties>
    <property name="Description" value="商业/服务区终端，可承担补给或轻交互。"/>
    <property name="GridX" value="58"/>
    <property name="GridY" value="37"/>
    <property name="Priority" value="Low"/>
    <property name="Region" value="R5"/>
   </properties>
  </object>
  <object id="214" name="I19_R5闸机" type="GateInteract" x="2052.8" y="1028.8" width="22.4" height="22.4">
   <properties>
    <property name="Description" value="通向后续区域的闸机/门控设施。"/>
    <property name="GridX" value="64"/>
    <property name="GridY" value="32"/>
    <property name="Priority" value="Medium"/>
    <property name="Region" value="R5"/>
   </properties>
  </object>
  <object id="215" name="I20_R6行李提取" type="UtilityInteract" x="612.8" y="1892.8" width="22.4" height="22.4">
   <properties>
    <property name="Description" value="到达大厅的行李提取设施，可成为短暂停留点。"/>
    <property name="GridX" value="19"/>
    <property name="GridY" value="59"/>
    <property name="Priority" value="Medium"/>
    <property name="Region" value="R6"/>
   </properties>
  </object>
  <object id="216" name="I21_R6出口信息牌" type="Information" x="1156.8" y="2020.8" width="22.4" height="22.4">
   <properties>
    <property name="Description" value="出口/到达信息牌，强化撤离方向识别。"/>
    <property name="GridX" value="36"/>
    <property name="GridY" value="63"/>
    <property name="Priority" value="Low"/>
    <property name="Region" value="R6"/>
   </properties>
  </object>
  <object id="217" name="I22_R7站台调度" type="UtilityInteract" x="1796.8" y="1732.8" width="22.4" height="22.4">
   <properties>
    <property name="Description" value="站台调度/控制设备，强化可选探索区的功能价值。"/>
    <property name="GridX" value="56"/>
    <property name="GridY" value="54"/>
    <property name="Priority" value="Medium"/>
    <property name="Region" value="R7"/>
   </properties>
  </object>
  <object id="218" name="I23_R7紧急开关" type="MissionInteract" x="2052.8" y="1924.8" width="22.4" height="22.4">
   <properties>
    <property name="Description" value="可作为未来任务/事件触发器，例如开启站台门或临时改变路径。"/>
    <property name="GridX" value="64"/>
    <property name="GridY" value="60"/>
    <property name="Priority" value="High"/>
    <property name="Region" value="R7"/>
   </properties>
  </object>
 </objectgroup>
</map>
